X: 0552
M: 3/8
L: 1/16
K: G
d2 & !p!B2 |\
dBgdBd & BGB2GB |\
dccBce & BAA^GAc |\
cAAcec & ADDAcA |\
dBgdBd & BGGBGB |\
dccBce & BAA^GAc |\
cAAcaf & ADDAcA | g4 & B4 :|
|: Bd & !p!GB |\
dc a2 Ac & BA !f!c2 !p!DA |\
cB g2 Bd & AG !f!B2 !p!GB |\
dccBce & BAA^GAc |\
[A4D4] Bd & x4 GB |\
dc a2 Ac & BA !f!c2 !p!DA |\
cB g2 Bd & AG !f!B2 !p!GB |\
dccBcA & BAA^GAD |\
[G4B,4] H:|

